!!!OTL: MEIN HERZ HAT SICH GESELLET
!!!ARE: Europa, Mitteleuropa, Deutschland
!!!SCT: E0388
!!!YEM: Copyright 1995, estate of Helmut Schaffrath.
**kern
*ICvox
*Ivox
*M6/4
*k[f#c#g#]
*A:
{4a
=1
2a
4a
2a
4f#
=2
2.e
2b}
{4cc#
=3
2b
4a
2g#
4f#
=4
[2.e
2e]}
{4a
=5
2a
4a
2a
4f#
=6
2.e
2b}
{4cc#
=7
2b
4a
2g#
4f#
=8
[2.e
2e]}
{4e
=9
2a
4a
2g#
4e
=10
2.a
2b}
{4b
=11
2b
4b
2cc#
4cc#
=12
2b
4a
2b}
{4cc#
=13
2ee
4dd
2cc#
4b
=14
2.a
2dd}
{4b
=15
2cc#
4b
2a
4g#
=16
[2.a
2a]}
==
!!!AGN: Liebes - Lied, Jahreszeiten, Fruehling
!!!ONB: ESAC (Essen Associative Code) Database: ERK1
!!!AMT: compound duple
!!!AIN: vox
!!!EED: Helmut Schaffrath
!!!EEV: 1.0
*-
